!!!COM: Britten, (Edward) Benjamin
!!!OTL: [T793_Bri-w2p7m2-1h11m1-6]
**kern	**dynam	**kern	**dynam	**kern	**dynam	**kern	**dynam
*grp:A	*grp:A	*grp:A	*grp:A	*grp:A	*grp:A	*grp:B	*grp:B
*part4	*part4	*part3	*part3	*part2	*part2	*part1	*part1
*staff4	*staff4	*staff3	*staff3	*staff2	*staff2	*staff1	*staff1
*I"Violoncello	*I"Violoncello	*I"Viola	*I"Viola	*I"Violin II	*I"Violin II	*I"Oboe	*I"Oboe
*	*I'Vc.	*I'Vla.	*I'Vla.	*I'Vln. II	*I'Vln. II	*I'Ob.	*I'Ob.
!!pagebreak:original
*clefF4	*	*clefC3	*	*clefG2	*	*clefG2	*
*k[]	*	*k[]	*	*k[]	*	*k[]	*
*C:	*	*C:	*	*C:	*	*C:	*
*M2/2	*	*M2/2	*	*M2/2	*	*M2/2	*
*met(c|)	*	*met(c|)	*	*met(c|)	*	*met(c|)	*
=1	=1	=1	=1	=1	=1	=1	=1
!	!	!	!	!	!	!LO:TX:t=[half]=138	!
!	!LO:DY:ed=brack	!	!LO:DY:ed=brack	!	!LO:DY:ed=brack	!	!LO:DY:ed=brack
8d'L	f	8e'L	f	8e'L	f	8b]	f
8B'	.	8d'	.	8f#X'	.	8r	.
8A'	.	8e'J	.	8a'	.	4r	.
8F#X'J	.	8r	.	8b'J	.	.	.
!	!	!LO:TX:a:t=pizz.	!	!	!	!	!
8E'	.	4E 4B 4g 4dd	.	8dd'	.	(10cc#XL	.
.	.	.	.	.	.	10dd	<
8r	.	.	.	8r	.	.	.
.	.	.	.	.	.	10ee	.
!LO:TX:a:t=pizz.	!	!	!	!LO:TX:a:t=pizz.	!	!	!
4GG+ 4D+ 4A+	.	4r	.	4a+ 4ee+	.	.	.
.	.	.	.	.	.	10ff#X	.
.	.	.	.	.	.	10gg#XJ	[
=2	=2	=2	=2	=2	=2	=2	=2
!	!	!LO:TX:a:t=arco	!	!	!	!	!
!LO:TX:a:t=arco	!LO:DY:t=più %s	!	!LO:DY:t=più %s	!LO:TX:a:t=arco	!LO:DY:t=più %s	!	!
8d'L	f	8e'L	f	8e'L	f	8aa)	.
8B'	.	8d'	.	8f#X'	<	8r	.
8A'	.	8e'	.	8a'	.	4r	.
8F#'XJ	.	8d'J	.	8b'J	.	.	.
!	!	!	!	!	!	!	!LO:DY:t=piú %s
.	.	.	.	.	.	(>8qgg#X/	f
8E'L	.	8B'L 8g	.	8dd'L	[ >	4bb')	.
8F#'	.	8d'	.	8b'	.	.	.
8A'	.	8e'	.	8a'	.	4aa'	.
8B'J	.	8d'J	.	8f#'J	]	.	.
!!LO:REH:t=11
=3	=3	=3	=3	=3	=3	=3	=3
8d'L	.	8e'L	<	8e'	.	6ff#X'	.
8B'	.	8f#X'	.	8r	.	.	.
.	.	.	.	.	.	6ee'	.
8A'	.	8a'J	[	4r	.	.	.
.	.	.	.	.	.	6dd'	.
8F#X'J	.	8r	.	.	.	.	.
!	!	!LO:TX:a:t=pizz.	!	!	!	!	!
8E	.	4E 4B 4g 4dd	sf	(10bvL	f <	4cc#X^	.
.	.	.	.	10cc#X	.	.	.
8r	.	.	.	.	.	.	.
.	.	.	.	10dd	.	.	.
!LO:TX:a:t=pizz.	!	!	!	!	!	!	!
4GG+ 4D+ 4A+	.	4r	.	.	.	[4b~	.
.	.	.	.	10ee	.	.	.
.	.	.	.	10ff#XJ	[	.	.
=4	=4	=4	=4	=4	=4	=4	=4
!LO:TX:a:t=arco	!	!LO:TX:a:t=arco	!	!	!	!	!
8d'L	f	8e'L	f	8gg#X)	>	8b]	.
8B'	.	8d'	.	8r	]	8r	.
8A'	.	8e'	.	4r	.	4r	.
8F#X'J	.	8d'J	.	.	.	.	.
.	.	.	.	(>8qff#X/	sf	.	.
8E'L	.	8B'L 8g	.	[2aau)	.	(10cc#XL	<
.	.	.	.	.	.	10dd	.
8F#'	.	8d'	.	.	.	.	.
.	.	.	.	.	.	10ee	.
8A'	.	8e'	.	.	.	.	.
.	.	.	.	.	.	10ff#X	.
8B'J	.	8d'J	.	.	.	.	.
.	.	.	.	.	.	10gg#XJ	[
!!linebreak:original
=5	=5	=5	=5	=5	=5	=5	=5
8d'L	.	8e	.	2aa_	>	8aa)	.
8B'	.	8r	.	.	.	8r	.
8A'	.	4r	.	.	.	4r	.
8F#X'J	.	.	.	.	.	.	.
.	.	.	.	.	.	(>8qgg#X/	ff
8E'	.	(10f#XvL	f	8aa]	]	4bb'^)	.
.	.	10g#X	.	.	.	.	.
8r	.	.	.	8r	.	.	.
.	.	10a	<	.	.	.	.
!LO:TX:a:t=pizz.	!	!	!	!	!	!	!
4GG+ 4D+ 4A+	sf	.	.	4r	.	4aa'	.
.	.	10b	.	.	.	.	.
.	.	10cc#XJ	[	.	.	.	.
=6	=6	=6	=6	=6	=6	=6	=6
!LO:TX:a:t=arco	!	!	!	!	!	!	!
8d'L	f	8dd)	.	(10bvL	.	6ff#X'	.
.	.	.	.	10cc#X	.	.	.
8B'	.	8r	.	.	.	.	.
.	.	.	.	.	.	6ee'	.
.	.	.	.	10dd	<	.	.
8A'	.	4r	.	.	.	.	.
.	.	.	.	10ee	.	.	.
.	.	.	.	.	.	6dd'	.
8F#X'J	.	.	.	.	.	.	.
.	.	.	.	10ff#XJ	.	.	.
.	.	(8qcc#X/	sf	.	.	.	.
8E'L	.	[2ee)	.	8gg#X^)	[	4cc#X'^	.
8F#'	.	.	.	8r	.	.	.
8A'J	.	.	.	4r	.	[4b~	>
8r'	.	.	.	.	.	.	.
=7	=7	=7	=7	=7	=7	=7	=7
.	.	.	.	(8qff#X/	sf >	.	.
(8F#XvL	<	8ee]	.	[2aau)	.	8b]	]
8G#X	.	8r	.	.	.	8r	.
8A	.	4r	.	.	.	4r	.
8BJ	.	.	.	.	.	.	.
.	.	.	.	.	.	(8qg#X/	f
8c#X^)	[	(8C#XvL	f <	8aa]	]	4b'^)	.
8r	.	8D	.	8r	.	.	.
!	!	!LO:TX:a:t=(sul C)	!	!	!	!	!
4r	.	8E	.	4r	.	4a'	.
.	.	8F#XJ	.	.	.	.	.
=8	=8	=8	=8	=8	=8	=8	=8
(8qB/	sf	.	.	.	.	.	.
4.d)	.	8G#X^)	[	(8AvL	f <	6f#X'	.
.	.	8r	.	8B	.	.	.
.	.	.	.	.	.	6e'	.
.	.	4r	.	8c#X	.	.	.
.	.	.	.	.	.	6d'	.
8r	.	.	.	8dJ	.	.	.
.	.	(8qF#X/	sf	.	.	.	.
!LO:TX:t=P:problem:hanging slur.	!	!	!	!	!	!	!
(8BBvL	.	4.A)	.	8e)	[ >	4c#X'^	.
8C#X	.	.	.	8r	]	.	.
8D	<	.	.	4r	.	[4B~	.
8EJ	.	8r	.	.	.	.	.
=	=	=	=	=	=	=	=
*-	*-	*-	*-	*-	*-	*-	*-
!!!RDF**kern: + = l.h. pizz.
!!!system-decoration: s1[(s2,s3,s4)]
!!!RDF**kern: > = above
!!!RDF**kern: < = below
